icons/svg/print.svg

<!-- Generated by IcoMoon.io -->
<svg version="1.1" xmlns="http://www.w3.org/2000/svg" width="48" height="48" viewBox="0 0 48 48">
<title>print</title>
<path d="M36 6c0-1.105-0.895-2-2-2v0h-20c-1.105 0-2 0.895-2 2v0 6h24z"></path>
<path d="M40 14h-32c-2.209 0-4 1.791-4 4v0 14c0 1.105 0.895 2 2 2v0h6v10h24v-10h6c1.105 0 2-0.895 2-2v0-14c0-2.209-1.791-4-4-4v0zM34 34v8h-20v-16h20zM38 22c-1.105 0-2-0.895-2-2s0.895-2 2-2c1.105 0 2 0.895 2 2v0c0 1.105-0.895 2-2 2v0z"></path>
</svg>

<svg xmlns="http://www.w3.org/2000/svg" width="48" height="48" viewBox="0 0 48 48">
  <path d="M36 6a2 2 0 0 0-2-2H14a2 2 0 0 0-2 2v6h24zm4 8H8a4 4 0 0 0-4 4v14a2 2 0 0 0 2 2h6v10h24V34h6a2 2 0 0 0 2-2V18a4 4 0 0 0-4-4zm-6 20v8H14V26h20zm4-12a2 2 0 1 1 2-2 2 2 0 0 1-2 2z"/>
</svg>
